icons/rss3-alt-3.svg

<svg xmlns="http://www.w3.org/2000/svg" fill="none" viewBox="0 0 1024 1024">
  <path fill="#1477FB" d="M234.064 400.109H27.936c-3.815 0-6.936 2.976-6.936 6.868v206.265c0 3.777 3.121 6.867 6.936 6.867h206.128c3.815 0 6.936-3.09 6.936-6.867V406.977c0-3.777-3.121-6.868-6.936-6.868m-22.313 184.059c-.809 1.259-2.196 2.06-3.699 2.06h-32.601c-1.619 0-3.122-.916-3.815-2.404l-18.497-36.857c-1.272-2.404-3.815-4.006-6.59-4.006h-56.3a2.06 2.06 0 0 0-2.081 2.06v37.086c0 2.404-1.966 4.235-4.278 4.235H58.11a4.246 4.246 0 0 1-4.278-4.235V513.2c0-2.404 1.966-4.235 4.278-4.235h86.705c3.121 0 5.78-2.518 5.78-5.723v-29.303c0-3.091-2.543-5.723-5.78-5.723H58.11a4.247 4.247 0 0 1-4.278-4.236v-25.525c0-2.404 1.966-4.235 4.278-4.235h90.751a4.247 4.247 0 0 1 4.278 4.235v20.26c0 3.091 2.543 5.723 5.78 5.723h21.734a4.247 4.247 0 0 1 4.278 4.235v39.834c0 2.404-1.966 4.235-4.278 4.235h-21.734c-3.121 0-5.78 2.518-5.78 5.723v14.652c0 4.006 3.237 7.211 7.283 7.211h28.67c1.619 0 3.122.916 3.816 2.404l18.843 37.429c.694 1.374.578 2.862-.231 4.121z"/>
  <path fill="#1477FB" d="M428.374 524.655c26.621-8.788 43.1-31.283 43.1-59.168 0-36.438-28.234-62.799-67.07-62.799h-91.846c-1.383 0-2.42 1.171-2.42 2.46v92.325c0 1.406 1.152 2.46 2.42 2.46h22.817c3.918 0 7.145 3.281 7.145 7.264v12.888c0 3.984-3.227 7.264-7.145 7.264h-22.817c-1.383 0-2.42 1.172-2.42 2.461v88.927c0 1.406 1.152 2.46 2.42 2.46h27.427c1.383 0 2.42-1.171 2.42-2.46v-83.303c0-3.984 3.227-7.264 7.145-7.264h43.215c.922 0 1.729.468 2.189 1.288l49.323 90.919.461.703h31.922c1.844 0 2.996-1.992 2.189-3.749l-50.36-92.911zm-85.854-32.103v-58.465c0-1.406 1.153-2.46 2.42-2.46h57.736c21.78 0 36.3 13.591 36.3 33.86s-14.635 34.212-36.3 34.212H349.55c-3.918 0-7.145-3.281-7.145-7.264z"/>
  <path fill="#1477FB" d="m593.513 499.113-45.75-6.092c-11.524-1.64-24.662-8.67-28.695-23.316-5.531-20.386 11.178-40.069 31.922-40.069h24.431c22.471 0 33.765 21.323 34.687 41.007v1.406h33.074v-1.523c-2.074-47.452-29.963-72.525-80.668-72.525-48.056 0-76.635 24.253-76.635 64.792 0 33.743 20.167 56.473 53.932 61.042l46.442 6.444c17.171 1.992 28.234 14.294 28.234 31.517 0 19.215-13.598 32.571-33.074 32.571h-31.115c-24.085 0-35.033-21.792-36.992-40.538v-1.289h-33.074v1.523c1.037 47.686 29.617 71.821 85.047 71.821 51.859 0 81.591-24.253 81.591-66.549 0-34.094-18.9-55.535-53.241-60.456z"/>
  <path fill="#1477FB" d="m774.095 499.113-45.75-6.092c-11.524-1.64-24.662-8.67-28.695-23.316-5.532-20.386 11.178-40.069 31.922-40.069h24.43c22.472 0 33.766 21.323 34.688 41.007v1.406h33.074v-1.523c-2.075-47.452-29.963-72.525-80.668-72.525-48.056 0-76.635 24.253-76.635 64.792 0 33.743 20.167 56.473 53.932 61.042l46.442 6.444c17.171 1.992 28.234 14.294 28.234 31.517 0 19.215-13.598 32.571-33.074 32.571H730.88c-24.085 0-35.033-21.792-36.992-40.538v-1.289h-33.074v1.523c1.037 47.686 29.617 71.821 85.047 71.821 51.858 0 81.59-24.253 81.59-66.549 0-34.094-18.899-55.535-53.241-60.456z"/>
  <path fill="#1477FB" d="M972.885 504.854c-1.499-.703-1.614-2.695-.116-3.515 16.364-9.256 25.008-24.956 25.008-45.694 0-17.34-7.145-57.761-73.409-57.761-50.36 0-79.861 24.135-82.973 68.072v5.975h32.613v-5.741c1.038-21.324 17.286-37.375 37.799-37.375h22.242c18.784 0 31.345 12.654 31.345 31.517s-11.639 31.283-30.424 31.283h-36.876c-1.038 0-1.959.937-1.959 1.991v24.487c0 1.055.921 1.992 1.959 1.992h38.605c21.55 0 35.033 14.529 35.033 37.961 0 23.433-13.829 36.907-35.955 36.907h-23.509c-21.78 0-38.029-18.043-39.642-43.819v-3.632h-32.844v3.866c2.881 50.146 30.539 74.516 84.702 74.516 50.59 0 79.626-24.604 79.626-67.486 0-25.893-10.713-44.288-31.225-53.661z"/>
</svg>

<svg viewBox="0 0 1024 1024" fill="none" xmlns="http://www.w3.org/2000/svg">
  <path
    d="M234.064 400.109H27.9364C24.1214 400.109 21 403.085 21 406.977V613.242C21 617.019 24.1214 620.109 27.9364 620.109H234.064C237.879 620.109 241 617.019 241 613.242V406.977C241 403.2 237.879 400.109 234.064 400.109ZM211.751 584.168C210.942 585.427 209.555 586.228 208.052 586.228H175.451C173.832 586.228 172.329 585.312 171.636 583.824L153.139 546.967C151.867 544.563 149.324 542.961 146.549 542.961H90.2485C89.0925 542.961 88.1676 543.876 88.1676 545.021V582.107C88.1676 584.511 86.2023 586.342 83.8902 586.342H58.1098C55.6821 586.342 53.8324 584.397 53.8324 582.107V513.2C53.8324 510.796 55.7977 508.965 58.1098 508.965H144.815C147.936 508.965 150.595 506.447 150.595 503.242V473.939C150.595 470.848 148.052 468.216 144.815 468.216H58.1098C55.6821 468.216 53.8324 466.27 53.8324 463.98V438.455C53.8324 436.051 55.7977 434.22 58.1098 434.22H148.861C151.289 434.22 153.139 436.166 153.139 438.455V458.715C153.139 461.806 155.682 464.438 158.919 464.438H180.653C183.081 464.438 184.931 466.384 184.931 468.673V508.507C184.931 510.911 182.965 512.742 180.653 512.742H158.919C155.798 512.742 153.139 515.26 153.139 518.465V533.117C153.139 537.123 156.376 540.328 160.422 540.328H189.092C190.711 540.328 192.214 541.244 192.908 542.732L211.751 580.161C212.445 581.535 212.329 583.023 211.52 584.282L211.751 584.168Z"
    fill="#1477FB" />
  <path
    d="M428.374 524.655C454.995 515.867 471.474 493.372 471.474 465.487C471.474 429.049 443.24 402.688 404.404 402.688H312.558C311.175 402.688 310.138 403.859 310.138 405.148V497.473C310.138 498.879 311.29 499.933 312.558 499.933H335.375C339.293 499.933 342.52 503.214 342.52 507.197V520.085C342.52 524.069 339.293 527.349 335.375 527.349H312.558C311.175 527.349 310.138 528.521 310.138 529.81V618.737C310.138 620.143 311.29 621.197 312.558 621.197H339.985C341.368 621.197 342.405 620.026 342.405 618.737V535.434C342.405 531.45 345.632 528.17 349.55 528.17H392.765C393.687 528.17 394.494 528.638 394.954 529.458L444.277 620.377L444.738 621.08H476.66C478.504 621.08 479.656 619.088 478.849 617.331L428.489 524.42L428.374 524.655ZM342.52 492.552V434.087C342.52 432.681 343.673 431.627 344.94 431.627H402.676C424.456 431.627 438.976 445.218 438.976 465.487C438.976 485.756 424.341 499.699 402.676 499.699H349.55C345.632 499.699 342.405 496.418 342.405 492.435L342.52 492.552Z"
    fill="#1477FB" />
  <path
    d="M593.513 499.113L547.763 493.021C536.239 491.381 523.101 484.351 519.068 469.705C513.537 449.319 530.246 429.636 550.99 429.636H575.421C597.892 429.636 609.186 450.959 610.108 470.643V472.049H643.182V470.526C641.108 423.074 613.219 398.001 562.514 398.001C514.458 398.001 485.879 422.254 485.879 462.793C485.879 496.536 506.046 519.266 539.811 523.835L586.253 530.279C603.424 532.271 614.487 544.573 614.487 561.796C614.487 581.011 600.889 594.367 581.413 594.367H550.298C526.213 594.367 515.265 572.575 513.306 553.829V552.54H480.232V554.063C481.269 601.749 509.849 625.884 565.279 625.884C617.138 625.884 646.87 601.631 646.87 559.335C646.87 525.241 627.97 503.8 593.629 498.879L593.513 499.113Z"
    fill="#1477FB" />
  <path
    d="M774.095 499.113L728.345 493.021C716.821 491.381 703.683 484.351 699.65 469.705C694.118 449.319 710.828 429.636 731.572 429.636H756.002C778.474 429.636 789.768 450.959 790.69 470.643V472.049H823.764V470.526C821.689 423.074 793.801 398.001 743.096 398.001C695.04 398.001 666.461 422.254 666.461 462.793C666.461 496.536 686.628 519.266 720.393 523.835L766.835 530.279C784.006 532.271 795.069 544.573 795.069 561.796C795.069 581.011 781.471 594.367 761.995 594.367H730.88C706.795 594.367 695.847 572.575 693.888 553.829V552.54H660.814V554.063C661.851 601.749 690.431 625.884 745.861 625.884C797.719 625.884 827.451 601.631 827.451 559.335C827.451 525.241 808.552 503.8 774.21 498.879L774.095 499.113Z"
    fill="#1477FB" />
  <path
    d="M972.885 504.854C971.386 504.151 971.271 502.159 972.769 501.339C989.133 492.083 997.777 476.383 997.777 455.645C997.777 438.305 990.632 397.884 924.368 397.884C874.008 397.884 844.507 422.019 841.395 465.956V471.931H874.008V466.19C875.046 444.866 891.294 428.815 911.807 428.815H934.049C952.833 428.815 965.394 441.469 965.394 460.332C965.394 479.195 953.755 491.615 934.97 491.615H898.094C897.056 491.615 896.135 492.552 896.135 493.606V518.093C896.135 519.148 897.056 520.085 898.094 520.085H936.699C958.249 520.085 971.732 534.614 971.732 558.046C971.732 581.479 957.903 594.953 935.777 594.953H912.268C890.488 594.953 874.239 576.91 872.626 551.134V547.502H839.782V551.368C842.663 601.514 870.321 625.884 924.484 625.884C975.074 625.884 1004.11 601.28 1004.11 558.398C1004.11 532.505 993.397 514.11 972.885 504.737V504.854Z"
    fill="#1477FB" />
</svg>
